X:50
T:Drag Her Around the Road (reel)
T:The Pullet 
B:CRE1.112 (Tarraing thar timpeall an Bhotair i)
F:file ID: cre.1/050drag
R:reel
Q:180
M:4/4
L:1/8
K:Em
GA|BEED E2DE|GEDB, D2GA|BEED E2DE|GABG A2:|
BA|G2GF GBdB|cBAB cdec|B2GB GBdB|GABG AGEF|
DG~G2 GBdB|cBAB cdea|gedB cdge|dBGB A2|]

